static/img/in-field/accordion-background-focus.svg

<svg fill="none" height="57" viewBox="0 0 178 57" width="178" xmlns="http://www.w3.org/2000/svg" xmlns:xlink="http://www.w3.org/1999/xlink"><clipPath id="a"><rect height="56" rx="4" width="178" y=".125"/></clipPath><g clip-path="url(#a)"><rect fill="#fff" height="56" rx="4" width="178" y=".125"/><g fill="#252a2e"><path d="m30.9717 37.125h-1.8369v-14.0938h-4.9414v-1.6113h11.6982v1.6113h-4.9199zm9.0586-11.7734v11.7734h-1.7832v-11.7734zm-.8701-4.4043c.2936 0 .5442.0966.7519.29.2149.1862.3223.4798.3223.8809 0 .3938-.1074.6875-.3223.8808-.2077.1934-.4583.2901-.7519.2901-.308 0-.5658-.0967-.7735-.2901-.2005-.1933-.3008-.487-.3008-.8808 0-.4011.1003-.6947.3008-.8809.2077-.1934.4655-.29.7735-.29zm8.7041 14.9316c.2936 0 .5944-.0251.9023-.0752s.5586-.111.752-.1826v1.3857c-.2077.0931-.4978.1719-.8702.2364-.3652.0644-.7233.0966-1.0742.0966-.623 0-1.1888-.1074-1.6972-.3222-.5085-.222-.9167-.5944-1.2247-1.1172-.3007-.5228-.4511-1.2461-.4511-2.1699v-6.9825h-1.6758v-.8701l1.6865-.6982.709-2.5567h1.0742v2.7286h3.4483v1.3964h-3.4483v6.9288c0 .7376.1683 1.289.5049 1.6543.3438.3652.7985.5478 1.3643.5478zm6.083 1.2461h-1.794v-16.7148h1.794zm8.5537-11.9883c1.0026 0 1.862.222 2.5781.666s1.264 1.0671 1.6436 1.8692c.3795.7949.5693 1.7259.5693 2.7929v1.1065h-8.1318c.0214 1.3822.3652 2.4349 1.0312 3.1582s1.6042 1.085 2.8145 1.085c.7448 0 1.4036-.0681 1.9765-.2041.5729-.1361 1.1673-.3366 1.7832-.6016v1.5683c-.5944.265-1.1852.4584-1.7724.5801-.5801.1218-1.2676.1826-2.0625.1826-1.1315 0-2.1198-.2291-2.9649-.6875-.8379-.4655-1.4896-1.1458-1.9551-2.041s-.6982-1.9909-.6982-3.2871c0-1.2676.2113-2.3633.6338-3.2871.4297-.931 1.0312-1.6471 1.8047-2.1484.7806-.5013 1.6972-.752 2.75-.752zm-.0215 1.461c-.9525 0-1.7116.3115-2.2774.9345-.5657.6231-.9023 1.4932-1.0097 2.6104h6.2305c-.0072-.7018-.1182-1.3177-.3331-1.8477-.2076-.5371-.5263-.9525-.956-1.2461-.4297-.3008-.9811-.4511-1.6543-.4511z"/><path d="m155.45 24.675-2.5-2.5-6.95 6.9-6.95-6.9-2.5 2.5 9.45 9.4z"/></g></g><rect height="52" rx="2" stroke="#019aeb" stroke-width="4" width="174" x="2" y="2.125"/></svg>

<svg width="178" height="57" viewBox="0 0 178 57" fill="none" xmlns="http://www.w3.org/2000/svg"><g clip-path="url(#clip0_7196_83789)"><rect y=".125" width="178" height="56" rx="4" fill="#fff"/><path d="M30.9717 37.125H29.1348V23.0312H24.1934V21.4199H35.8916V23.0312H30.9717V37.125ZM40.0303 25.3516V37.125H38.2471V25.3516H40.0303ZM39.1602 20.9473C39.4538 20.9473 39.7044 21.0439 39.9121 21.2373C40.127 21.4235 40.2344 21.7171 40.2344 22.1182C40.2344 22.512 40.127 22.8057 39.9121 22.999C39.7044 23.1924 39.4538 23.2891 39.1602 23.2891C38.8522 23.2891 38.5944 23.1924 38.3867 22.999C38.1862 22.8057 38.0859 22.512 38.0859 22.1182C38.0859 21.7171 38.1862 21.4235 38.3867 21.2373C38.5944 21.0439 38.8522 20.9473 39.1602 20.9473ZM47.8643 35.8789C48.1579 35.8789 48.4587 35.8538 48.7666 35.8037C49.0745 35.7536 49.3252 35.6927 49.5186 35.6211V37.0068C49.3109 37.0999 49.0208 37.1787 48.6484 37.2432C48.2832 37.3076 47.9251 37.3398 47.5742 37.3398C46.9512 37.3398 46.3854 37.2324 45.877 37.0176C45.3685 36.7956 44.9603 36.4232 44.6523 35.9004C44.3516 35.3776 44.2012 34.6543 44.2012 33.7305V26.748H42.5254V25.8779L44.2119 25.1797L44.9209 22.623H45.9951V25.3516H49.4434V26.748H45.9951V33.6768C45.9951 34.4144 46.1634 34.9658 46.5 35.3311C46.8438 35.6963 47.2985 35.8789 47.8643 35.8789ZM53.9473 37.125H52.1533V20.4102H53.9473V37.125ZM62.501 25.1367C63.5036 25.1367 64.363 25.3587 65.0791 25.8027C65.7952 26.2467 66.3431 26.8698 66.7227 27.6719C67.1022 28.4668 67.292 29.3978 67.292 30.4648V31.5713H59.1602C59.1816 32.9535 59.5254 34.0062 60.1914 34.7295C60.8574 35.4528 61.7956 35.8145 63.0059 35.8145C63.7507 35.8145 64.4095 35.7464 64.9824 35.6104C65.5553 35.4743 66.1497 35.2738 66.7656 35.0088V36.5771C66.1712 36.8421 65.5804 37.0355 64.9932 37.1572C64.4131 37.279 63.7256 37.3398 62.9307 37.3398C61.7992 37.3398 60.8109 37.1107 59.9658 36.6523C59.1279 36.1868 58.4762 35.5065 58.0107 34.6113C57.5452 33.7161 57.3125 32.6204 57.3125 31.3242C57.3125 30.0566 57.5238 28.9609 57.9463 28.0371C58.376 27.1061 58.9775 26.39 59.751 25.8887C60.5316 25.3874 61.4482 25.1367 62.501 25.1367ZM62.4795 26.5977C61.527 26.5977 60.7679 26.9092 60.2021 27.5322C59.6364 28.1553 59.2998 29.0254 59.1924 30.1426H65.4229C65.4157 29.4408 65.3047 28.8249 65.0898 28.2949C64.8822 27.7578 64.5635 27.3424 64.1338 27.0488C63.7041 26.748 63.1527 26.5977 62.4795 26.5977Z" fill="#252A2E"/><path d="M155.45 24.675L152.95 22.175L146 29.075L139.05 22.175L136.55 24.675L146 34.075L155.45 24.675Z" fill="#252A2E"/></g><rect x="2" y="2.125" width="174" height="52" rx="2" stroke="#019AEB" stroke-width="4"/><defs><clipPath id="clip0_7196_83789"><rect y=".125" width="178" height="56" rx="4" fill="#fff"/></clipPath></defs></svg>
